X:225
T:Jackie Coleman's
S:a Madison, Wisconsin fiddle setting
N:transcribed by Alan Ng
Z: id:ng-reels-45 transcribed by Alan Ng alan@alan-ng.net 16 Jan 2002
M:C|
K:DMaj
E:12
dB|AF~F2 EFDE|F2AF BFAF|E2BE dEBE|ABde fedB|\
AF~F2 EFDE|F2AF BFAF|E2BE dEBE|ABde fd::de|\
fddc ~d3e|fd~d2 fdgf|eA(3cBA eAfA|eA(3cBA efge|\
fddc ~d3e|fd~d2 dfaf|~g3f gbag|faeg fd:||**
